X:1
T:Beverly School Boys. Ru1.168
L:1/8
Q:3/8=90
M:2/4
I:linebreak $
K:F
V:1 treble 
V:1
|: F>GA>G | AF cA | dF fc | A2 F2 | F>GA>G | AF fc | f/g/a gf | e2 c2 |: f>ga>f | ecgc |$ acbg | %11
 a2 g2 | f>g a/g/a/f/ | ecgc | ac g/a/b | a2 gf/e/ | fBdB | gcec | a/g/f/e/ fB | A2 G2 |$ F>GA>B | %21
 cAfB | A2 G2 | F4 :| %24
